CKC/img/icons/advant-02.svg

<svg width="38" height="39" viewBox="0 0 38 39" fill="none" xmlns="http://www.w3.org/2000/svg">
<path d="M28.3733 38.1975L22.8 31.8642L25.1509 29.4153L28.3733 32.772L35.6491 25.1931L38 28.1697M19.8613 38.1975H4.05333C1.80373 38.1975 0 36.3186 0 33.9753V4.41973C0 2.0764 1.80373 0.19751 4.05333 0.19751H32.4267C34.6763 0.19751 36.48 2.0764 36.48 4.41973V20.8864C35.2437 20.1475 33.8859 19.6197 32.4267 19.3664V4.41973H4.05333V33.9753H18.4021C18.6453 35.4953 19.152 36.9097 19.8613 38.1975ZM18.24 29.7531H8.10667V25.5308H18.24M23.6715 21.3086H8.10667V17.0864H28.3733V19.3664C26.6507 19.662 25.0699 20.3375 23.6715 21.3086ZM28.3733 12.8642H8.10667V8.64195H28.3733" fill="#F9600A"/>
</svg>

<svg width="38" height="39" fill="none" xmlns="http://www.w3.org/2000/svg"><path d="M28.373 38.197L22.8 31.864l2.35-2.449 3.223 3.357 7.276-7.579L38 28.17M19.861 38.197H4.053C1.803 38.197 0 36.32 0 33.975V4.42C0 2.076 1.804.198 4.053.198h28.374c2.25 0 4.053 1.878 4.053 4.222v16.466a11.82 11.82 0 00-4.053-1.52V4.42H4.053v29.555h14.35c.242 1.52.749 2.935 1.458 4.222zm-1.621-8.444H8.107v-4.222H18.24m5.432-4.222H8.107v-4.223h20.266v2.28a11.67 11.67 0 00-4.701 1.943zm4.701-8.445H8.107V8.642h20.266" fill="#F9600A"/></svg>
